**kern	**dynam
*clefF4	*
*k[b-e-]	*
*B-:	*
*M3/4	*
4r	.
=1	=1
4r	.
4r	.
(>4BB-	f
=2	=2
4F)	.
4F'	.
4G'	.
=3	=3
2E-	.
4F	.
=4	=4
4BB-	.
4r	.
4r	.
=5	=5
2.r	.
=6	=6
2.r	.
=7	=7
4r	.
4r	.
(>4F	f
=8	=8
4B-)	.
4B-'	.
4B-'	.
=9	=9
4A	.
4r	.
(>4F	.
=10	=10
4d)	.
4d'	.
4d'	.
=11	=11
!!linebreak:original
2B-	.
4c	.
=12	=12
4F	.
=13:|!|:	=13:|!|:
4r	.
=14	=14
2.r	.
=15	=15
4r	.
4r	.
(>4FF	p
=16	=16
4F)	.
(>4F	.
4E-)	.
=17	=17
4D-X'	.
(>4D-	.
4AA)	.
=18	=18
4BB-	.
4FF	.
4r	.
=19	=19
4FF	.
4r	.
(>4F	f
=20	=20
4B-)	.
4B-'	.
4B-'	.
=21	=21
4A	.
4r	.
(>4F	.
=22	=22
4B-)	.
4B-'	.
4B-'	.
=23	=23
!!linebreak:original
4E-	.
4r	.
(>4E-	.
=24	=24
4B-)	.
4B-'	.
4B-'	.
=25	=25
4B-	.
4r	.
4r	.
=26	=26
4E-	.
4F	.
4FF	.
=27	=27
2BB-	.
[4BB-	.
=28:|!	=28:|!
4BB-]	.
4r	.
4BB-	.
=29!|:	=29!|:
4BB-	f
4BB-	p
4BB-	.
=30	=30
4BB-	f
4BB-	p
4BB-	.
=31	=31
4BB-	f
4BB-	p
4BB-	.
=32	=32
4r	.
4r	.
4AA	.
=33	=33
4AA	.
4AA	.
=34	=34
!!linebreak:original
4BB-	.
4BB-	.
4BB-	.
=35	=35
4C	.
4C	.
4C	.
=36	=36
4F	.
4C	.
4FF	.
=37:|!|:	=37:|!|:
4D	.
4D	.
4D	.
=38	=38
4E-	.
4r	.
4r	.
=39	=39
4E-	.
4E-	.
4E-	.
=40	=40
4.F	.
8E-L	.
8D	.
8CJ	.
=41	=41
4BB-	f
4r	.
4r	.
=42	=42
4E-	f
4r	.
4r	.
=43	=43
4F	p
4F	.
4F	.
=44	=44
4B-'	.
4BB-	.
4r	.
=45:|!	=45:|!
4B-'	.
4BB-	p
==	==
*-	*-
!!!RDF**kern: > = above
